X: 9945
T: Dever The Dancer
R: slip jig
M: 9/8
K: Eminor
|:BEE BEF G3|BEE BAG FGA|BEE BEF G2A|Bcd ABG FED:|
|:ded cAF G2A|{B}ded def gfe|g/f/ed cAF G2A|Bcd ABG FED:|

